X:1
T:Perfido Amore
T:Perfido Amore
T:Claudio Saracini
T:Source : Le terze Musische per cantar e sonar---Venetia---A.Vincenti---1620. Editor : André Vierendeels (09/12/15).
T:Notes : Original clefs :C1, F4 
T:Aria
C:Claudio Saracini
%%score 1 2
L:1/8
Q:1/4=90
M:4/4
K:F
V:1 treble nm="Soprano" snm="S"
V:2 bass nm="BC" snm="BC"
V:1
 d6 cB | A4 AGAB | c2 c2 z _edc | d4 c4 :: z _edc d2 d2 | z GA=B c2 B2 | z dcB AcBA | G3 B A4 | %8
w: Per- fi- do'A-|mo- re, per- che mi|da- i, con- tan- ti|gua- i.|E di do- lo- re|mi nu- tri l'al- ma|tra- hen- do mor- te'a la mi'af-|fli- ta sal-|
w: Che mi tor-|men- ti, con la tua|fiam- ma ch'el cor in-|fiam- ma.|E con- gl'ar- den- ti|em- pi tuoi stra- li|so- ven- te'im- pe- tuo- so'il cor|mi af- fa-|
w: A do- pri|va- no, la tua fie-|rez- za la tua as-|prez- za.|che'l cor non fa- no|di gia si'al- te- ro|e sot- to- po- sto'al tuo su-|pe- tro'im- pe-|
w: Non fia vit-|to- ria, do- mar il|der- vo e non pro-|ter- vo.|Fia chia- ra glo- ria|per- che fai be- ne|che mi ti re- sti'e tu mi|strug- g'in pe-|
w: Hor- mai fac-|cia- te, per- ver- se|do- glio le cru- de|vo- glie.|E tor- men- ta- te|e'n cor piu'a- cer- bo|un o- sti- na- to piu,- un|piu su- per-|
w: Ma fe per|for- te, in fai- sta|stel- la spie- ta- te|fel- la.|Vuoi la mia mor- te|va pre- sti l'ho- ra|ch'el mo- rir mi fia vi- t'a-|la dol- ce'o-|
 G8 :| %9
w: ma.|
w: le.|
w: ro.|
w: ne.|
w: bo.|
w: ra.|
V:2
 G,2 F,E, D,2 E,2 | F,4 F,4 | F,,4 z C,B,,A,, | G,,4 C,4 :: z CG,A, B,2 B,2 | z _E,F,G, _A,2 G,2 | %6
 D,2 E,2 F,2 G,2 | _E,2 C,2 D,4 | G,,8 :| %9

